X:115
T:The Charmer
C:John Young: Dancing Master, 1713
M:2/2
L:1/4
S:Colin Hume's website,  colinhume.com  - chords can also be printed below the stave.
Q:1/2=100
N:For the dance "Edwin's Maggot" by Fried de Metz Herman
K:A
P:A
|:e | "A"aAAa | "C#m"g2 "Em"e/f/=g | "D"fe "B7"^d/e/f/d/ | "E"eB GE |
"A"aA Aa | "C#m"g2 "Em"e/f/=g | "D"fe "B7"^d/e/f/d/ | "E"e3 :|
P:B
|:B | "E"eB Bc | "D"d2 "Am"A/B/=c | "B7"BA "E"GA | "B7"B/A/B/c/ BB |
"E"eB Bc | "D"d2 "Am"A/B/=c | "B7"BA "E7"G/A/B/G/ | "A"A3 :|

